X:1
T:Durang's Hornpipe
R:Reel
C:New York, 1785, by Mr. Hoffmaster
H:Composed in honor of the then renowned dancer and actor John Durang.
N:This is a "straightened out" version, giving the basic melody line.
N:Cyril Stinnett, Cleo Persinger and others played the "A" part of this
N:tune with a wholly different melody in the 2nd half of the "A" part.
N:Durang's Hornpipe as it appears in Cole's gives an example of this
N:variation.
A:Missouri
Z:B. Shull, trans.; R.P. LaVaque, ABCs
M:2/4
L:1/16
Q:120
K:D
(de|fe)fa (fe)d(A|BA)Bc (dB)AF|GBAG (FG)AF|(ED)EF E2d(e|!
fe)fa (fe)d(A|BA)Bc (dB)AF|(Ac)ea (3fgf ec|[d3f3][df] [d2f2]:|!
|:(FE|D)AFA DAF(A|Bc)(dB) A(GF)(E|D)AFA DAFA|A,ECE A,EC(E|!
D)AFA DAF(A|Bc)(dB) (AGF)E|(Ac)ea (3(fgf) ec|[d3f3][df] [d2f2]:|
